16x16/apps/chrome-bgkodfmeijboinjdegggmkbkjfiagaan-Default.svg

<svg xmlns="http://www.w3.org/2000/svg" width="16" height="16" version="1">
 <path style="fill:#47ad5d" d="M 8 0 A 8 8 0 0 0 0 8 A 8 8 0 0 0 0.96094 11.787 L 0.94727 11.775 C 1.3505 12.723 1.3213 12.98 1.2578 13.771 C 1.2136 14.323 1.0638 14.886 0.87695 15.203 C 0.70757 15.491 0.57227 15.788 0.57227 15.863 C 0.57227 16.097 1.9196 16.015 3.1133 15.709 C 4.5117 15.351 4.6346 15.326 5.7812 15.686 L 5.7695 15.676 A 8 8 0 0 0 8 16 A 8 8 0 0 0 16 8 A 8 8 0 0 0 8 0 z"/>
 <path style="fill:#f4f4f7" d="M 5.5,4 C 4.6716,4 4,4.6716 4,5.5 V 6.0176 C 4.0036,6.7807 4.2356,7.3944 4.9082,8.4141 6.0628,10.165 7.1896,11.115 8.8125,11.707 9.2977,11.884 9.6433,11.994 9.9396,12 H 10.5 C 11.328,12 12,11.328 12,10.5 12,9.6716 11.328,9 10.5,9 10,9 9,9 9,10 8.0316,9.9457 6,8 6,7 7,7 7,6 7,5.5 7,4.6716 6.3284,4 5.5,4 Z"/>
</svg>

<svg xmlns="http://www.w3.org/2000/svg" width="16" height="16" version="1"><path style="fill:#47ad5d" d="M8 0a8 8 0 0 0-8 8 8 8 0 0 0 .96 3.787l-.013-.012c.404.948.374 1.205.31 1.996-.043.552-.193 1.115-.38 1.432-.17.288-.305.585-.305.66 0 .234 1.348.152 2.541-.154 1.399-.358 1.522-.383 2.668-.023l-.011-.01A8 8 0 0 0 8 16a8 8 0 0 0 8-8 8 8 0 0 0-8-8z"/><path style="fill:#f4f4f7" d="M5.5 4A1.5 1.5 0 0 0 4 5.5v.518c.004.763.236 1.376.908 2.396 1.155 1.751 2.282 2.701 3.904 3.293.486.177.831.287 1.128.293h.56a1.5 1.5 0 0 0 0-3C10 9 9 9 9 10c-.968-.054-3-2-3-3 1 0 1-1 1-1.5A1.5 1.5 0 0 0 5.5 4z"/></svg>
